X:40
T:Tricot s1.1  kejaj  "Le petit Moulin"
G:Lark13
Q:1/4=180
K:Am
L:1/8
M:3/2
 |: "Am" A2 cB c3 d "C"e2e2 | "G"d2 cB "Em"d2c2 "Am"A4 | A2 cB c3 d "C"e2e2 | "G"d2 cB "Em"d2c2 "Am"A4 :|
M:2/2
 |:"Am" ABcd "C"e2 e2| "Dm"dedc "Em"B2 AB|"Am (F)"d2 cB A2B2|"Dm"c2 BA "Em"B4|
"Am"ABcd "C"e2 e2| "Dm"dedc "Em"B2 AB|"F"d2 c2 B2 A2|"G"c2 B2 "Am"A4:|

